src/lib/packages/icons/src/assets/filled/alarm-plus.svg

<svg width="24" height="24" viewBox="0 0 24 24" fill="none" xmlns="http://www.w3.org/2000/svg">
<path fill-rule="evenodd" clip-rule="evenodd" d="M21.5359 5.52505C21.3889 5.67505 21.194 5.75002 21 5.75002C20.811 5.75002 20.6211 5.67903 20.4751 5.53603L18.4751 3.57607C18.1801 3.28607 18.1751 2.81104 18.4641 2.51504C18.7561 2.21904 19.2299 2.21405 19.5259 2.50405L21.5259 4.46401C21.8199 4.75401 21.8249 5.22905 21.5359 5.52505ZM5.53005 2.46999C5.23705 2.17699 4.76202 2.17699 4.46902 2.46999L2.46902 4.46999C2.17602 4.76299 2.17602 5.23803 2.46902 5.53103C2.61502 5.67703 2.80705 5.751 2.99905 5.751C3.19105 5.751 3.38308 5.67803 3.52908 5.53103L5.52908 3.53103C5.82308 3.23703 5.82305 2.76299 5.53005 2.46999ZM16.6031 18.5371L18.532 20.471C18.824 20.764 18.8241 21.239 18.5301 21.532C18.3841 21.678 18.192 21.751 18.001 21.751C17.809 21.751 17.616 21.6771 17.47 21.5301L15.252 19.3059C14.258 19.7489 13.16 20 12.002 20C10.844 20 9.74598 19.7489 8.75198 19.3059L6.53298 21.5301C6.38698 21.6761 6.19398 21.75 6.00198 21.75C5.81098 21.75 5.61892 21.677 5.47292 21.531C5.17892 21.239 5.17897 20.763 5.47097 20.47L7.39993 18.5371C5.34693 17.0891 4.00198 14.704 4.00198 12C4.00198 7.58202 7.58398 4.00002 12.002 4.00002C16.42 4.00002 20.002 7.58202 20.002 12C20 14.703 18.6561 17.0891 16.6031 18.5371ZM14.5 12.75C14.914 12.75 15.25 12.414 15.25 12C15.25 11.586 14.914 11.25 14.5 11.25H12.75V9.50002C12.75 9.08602 12.414 8.75002 12 8.75002C11.586 8.75002 11.25 9.08602 11.25 9.50002V11.25H9.50002C9.08602 11.25 8.75002 11.586 8.75002 12C8.75002 12.414 9.08602 12.75 9.50002 12.75H11.25V14.5C11.25 14.914 11.586 15.25 12 15.25C12.414 15.25 12.75 14.914 12.75 14.5V12.75H14.5Z" fill="currentColor"/>
</svg>

<svg xmlns="http://www.w3.org/2000/svg" width="24" height="24" fill="none"><path fill="currentColor" fill-rule="evenodd" d="M21.536 5.525a.749.749 0 0 1-1.06.011l-2-1.96a.751.751 0 0 1 1.05-1.072l2 1.96c.294.29.299.765.01 1.061ZM5.53 2.47a.75.75 0 0 0-1.061 0l-2 2a.75.75 0 0 0 1.06 1.061l2-2A.75.75 0 0 0 5.53 2.47Zm11.073 16.067 1.929 1.934a.75.75 0 0 1-1.062 1.06l-2.218-2.225a7.96 7.96 0 0 1-6.5 0L6.533 21.53a.75.75 0 0 1-1.062-1.06L7.4 18.537A7.984 7.984 0 0 1 4.002 12a8 8 0 0 1 16 0 7.992 7.992 0 0 1-3.399 6.537ZM14.5 12.75a.75.75 0 0 0 0-1.5h-1.75V9.5a.75.75 0 0 0-1.5 0v1.75H9.5a.75.75 0 0 0 0 1.5h1.75v1.75a.75.75 0 0 0 1.5 0v-1.75h1.75Z" clip-rule="evenodd"/></svg>
